X: 1225
T: Arthur Byatt's Set Tune
B: australian traditional tunes wiki
M:2/4
L:1/16
R: Reel
Q: 1/4=100
K:G
V:1 
B2c2|:"G"d4B2c2|d4B2d2|.g3f e2d2|"D7"c4A2B2|c4 A2B2|c4A2c2|f3e d2f2|1"G"B4B2c2:|2"G"g6d2||
"G"g3g f2g2|a2g2 f2e2|"D7"e8|"G"d6B2|d3d d2d2|e2d2 c2B2|"D7"A8-|A4B2c2|
"G"d4B2c2|d4B2d2|.g3f e2d2|"D7"c4A2B2|c4 A2B2|c4A2c2|f3e d2f2|"G"g6||
% abcbook-tune_id 6342d53ac3a370ad3a361a95


% abcbook-boost 0
% abcbook-tablature 
% abcbook-transpose 
% abcbook-lastupdated 1665324354901
% abcbook-soundfonts 
% abcbook-repeats 1
% NFF Book 2008

